app/assets/images/visual-editor/icons/code.svg

<?xml version="1.0" encoding="utf-8"?>
<svg xmlns="http://www.w3.org/2000/svg" xmlns:xlink="http://www.w3.org/1999/xlink" width="24" height="24" viewBox="0 0 24 24">
    <g id="code" opacity=".75">
        <path id="left-bracket" d="M4 12v-1h1c1 0 1 0 1-1v-2.386c0-.514.024-.896.073-1.142.054-.252.139-.463.257-.633.204-.279.473-.475.808-.584.335-.115.872-.255 1.835-.255h1.027v1h-.752c-.457 0-.77.191-.936.408-.167.215-.312.445-.312 1.068v1.857c0 .729-.041 1.18-.244 1.493-.2.307-.562.529-1.09.667.535.155.9.385 1.096.688.199.303.238.757.238 1.484v1.862c0 .619.145.848.312 1.062.166.22.479.407.936.407l.752.004v1h-1.027c-.963 0-1.5-.133-1.835-.248-.335-.109-.604-.307-.808-.591-.118-.165-.203-.374-.257-.625-.049-.253-.073-.636-.073-1.149v-2.387c0-1 0-1-1-1h-1z"/>
        <use transform="matrix(-1 0 0 1 24 0)" id="right-bracket" width="24" height="24" xlink:href="#left-bracket"/>
    </g>
</svg>

<?xml version="1.0" encoding="utf-8"?>
<!DOCTYPE svg PUBLIC "-//W3C//DTD SVG 1.1//EN" "http://www.w3.org/Graphics/SVG/1.1/DTD/svg11.dtd">
<svg version="1.1" id="Layer_1" xmlns="http://www.w3.org/2000/svg" xmlns:xlink="http://www.w3.org/1999/xlink" x="0px" y="0px"
	 width="24px" height="24px" viewBox="0 0 24 24" enable-background="new 0 0 24 24" xml:space="preserve">
<g id="code" opacity="0.75">
	<path id="left-bracket" d="M4,12v-1h1c1,0,1,0,1-1V7.614C6,7.1,6.024,6.718,6.073,6.472C6.127,6.22,6.212,6.009,6.33,5.839
		C6.534,5.56,6.803,5.364,7.138,5.255C7.473,5.14,8.01,5,8.973,5H10v1H9.248c-0.457,0-0.77,0.191-0.936,0.408
		C8.145,6.623,8,6.853,8,7.476v1.857c0,0.729-0.041,1.18-0.244,1.493c-0.2,0.307-0.562,0.529-1.09,0.667
		c0.535,0.155,0.9,0.385,1.096,0.688C7.961,12.484,8,12.938,8,13.665v1.862c0,0.619,0.145,0.848,0.312,1.062
		c0.166,0.22,0.479,0.407,0.936,0.407L10,17l0,0v1H8.973c-0.963,0-1.5-0.133-1.835-0.248c-0.335-0.109-0.604-0.307-0.808-0.591
		c-0.118-0.165-0.203-0.374-0.257-0.625C6.024,16.283,6,15.9,6,15.387V13c0-1,0-1-1-1H4z"/>
	<use transform="matrix(-1,0,0,1,24,0)" id="right-bracket" x="0" y="0" width="24" height="24" xlink:href="#left-bracket" />
</g>
</svg>
